governance/ui/public/councils/ac.svg

<svg width="24" height="24" viewBox="0 0 24 24" fill="none" xmlns="http://www.w3.org/2000/svg">
<g clip-path="url(#clip0_5760_53299)">
<path fill-rule="evenodd" clip-rule="evenodd" d="M3.75989 5.52979H2.10986V4.02979H21.8899V5.52979H20.2499V13.7298C20.2499 14.8128 20.0364 15.8852 19.6216 16.8856C19.2068 17.8861 18.5989 18.7949 17.8326 19.5602C17.0662 20.3255 16.1566 20.9323 15.1556 21.3457C14.1546 21.7592 13.0819 21.9712 11.9989 21.9698C9.81386 21.9695 7.71839 21.1014 6.17333 19.5563C4.62803 18.011 3.75989 15.9152 3.75989 13.7298V5.52979ZM5.25989 5.52979V13.7298C5.25989 15.5173 5.96999 17.2317 7.23399 18.4957C8.49798 19.7597 10.2123 20.4698 11.9999 20.4698V21.2198L12.0009 20.4698C12.8868 20.471 13.7642 20.2975 14.5829 19.9593C15.4017 19.6211 16.1458 19.1249 16.7726 18.4989C17.3994 17.8729 17.8967 17.1295 18.236 16.3112C18.5753 15.4928 18.7499 14.6157 18.7499 13.7298V5.52979H5.25989Z" fill="white"/>
<path d="M9.58404 10.2959C9.67111 10.2959 9.74428 10.33 9.80371 10.398L10.4804 11.2259L11.3708 10.1399L10.9137 9.582C10.5694 9.19411 10.1598 9 9.68501 9H7.80336C7.78754 9 7.7746 9.00501 7.76486 9.01502C7.75495 9.02503 7.75 9.03601 7.75 9.04796V10.248C7.75 10.2599 7.75495 10.2711 7.76486 10.2809C7.7746 10.2909 7.78754 10.2959 7.80336 10.2959H9.58404Z" fill="white"/>
<path d="M14.3268 9C13.848 9 13.4365 9.19201 13.0922 9.57602L11.0917 12.0238L9.80371 13.5957C9.74028 13.6639 9.66711 13.6978 9.58404 13.6978H7.80336C7.78754 13.6978 7.77556 13.7028 7.76773 13.7128C7.75975 13.7228 7.75591 13.7338 7.75591 13.7457V14.9457C7.75591 14.9619 7.75975 14.9748 7.76773 14.9848C7.77556 14.9948 7.78754 14.9998 7.80336 14.9998H9.6791C10.1579 14.9998 10.5694 14.8059 10.9137 14.4178L12.006 13.0859L13.0981 14.4178C13.4384 14.8059 13.848 14.9998 14.3268 14.9998H16.2026C16.2184 14.9998 16.2302 14.9948 16.2382 14.9848C16.246 14.975 16.25 14.9638 16.25 14.9519V13.7519C16.25 13.7361 16.246 13.723 16.2382 13.713C16.2302 13.7029 16.2184 13.6979 16.2026 13.6979H14.4219C14.3386 13.6979 14.2675 13.666 14.2081 13.6019L12.8904 11.9939L14.2022 10.398C14.2616 10.33 14.3348 10.2959 14.4219 10.2959H16.2026C16.2184 10.2959 16.2302 10.2909 16.2382 10.2809C16.246 10.2711 16.25 10.2599 16.25 10.248V9.04796C16.25 9.03197 16.246 9.02002 16.2382 9.01195C16.2302 9.00404 16.2184 9 16.2026 9H14.3268Z" fill="white"/>
</g>
<defs>
<clipPath id="clip0_5760_53299">
<rect width="24" height="24" fill="white"/>
</clipPath>
</defs>
</svg>

<svg width="24" height="24" fill="none" viewBox="0 0 24 24" xmlns="http://www.w3.org/2000/svg">
  <g fill="#fff" clip-path="url(#a)">
    <path fill-rule="evenodd" d="M3.76 5.53H2.11v-1.5h19.78v1.5h-1.64v8.2a8.24 8.24 0 0 1-8.251 8.24 8.24 8.24 0 0 1-8.24-8.24zm1.5 0v8.2A6.74 6.74 0 0 0 12 20.47v.75-.75a6.74 6.74 0 0 0 6.75-6.74v-8.2z" clip-rule="evenodd"/>
    <path d="M9.584 10.296a.28.28 0 0 1 .22.102l.676.828.89-1.086-.456-.558Q10.397 9 9.685 9H7.803a.05.05 0 0 0-.038.015.05.05 0 0 0-.015.033v1.2q0 .018.015.033t.038.015zM14.327 9q-.718 0-1.235.576l-2 2.448-1.288 1.572a.3.3 0 0 1-.22.102h-1.78q-.024 0-.036.015a.05.05 0 0 0-.012.033v1.2q0 .024.012.039t.035.015H9.68q.718 0 1.235-.582l1.092-1.332 1.092 1.332q.51.582 1.229.582h1.876q.023 0 .035-.015a.05.05 0 0 0 .012-.033v-1.2a.06.06 0 0 0-.012-.039q-.012-.015-.035-.015h-1.781a.28.28 0 0 1-.214-.096l-1.318-1.608 1.312-1.596a.28.28 0 0 1 .22-.102h1.78q.024 0 .036-.015a.05.05 0 0 0 .012-.033v-1.2q0-.024-.012-.036T16.203 9z"/>
  </g>
  <defs>
    <clipPath id="a">
      <path fill="#fff" d="M0 0h24v24H0z"/>
    </clipPath>
  </defs>
</svg>
